X:2971
T:Polonäs i Gm efter Johan Eric Blomgren
R:Slängpolska
B:http://www.smus.se/earkiv/fmk/browselarge.php?lang=sw&katalogid=Ma+13c&bildnr=00008
O:Skåne, Hässlunda
S:efter Johan Eric Blomgren
N:Inga återställningstecken i originalet på smus.se.
Z:Nils L
M:3/4
L:1/16
K:Gm
d4 B2AB cBAG | G2g2 g2^fg agab | d4 B2AB cBAG | BAG^F G4 G,4 ::
B4 c2Bc d4 | B2AG ^FG=EF D4 | B2B2 c2de d4 | B2AG ^FG=EF D4 |
G^FGA BABc d2B2 | AG^FA G4 G,4 :|
(:musicend:)
(:music:)
